src/assets/icons/letters,simple,serif-f.svg

<svg width="48" height="48" viewBox="0 0 48 48" fill="none" xmlns="http://www.w3.org/2000/svg">
<rect opacity="0.2" x="5" y="5" width="38" height="38" rx="4" fill="black"/>
<path d="M22.2682 31.17C22.2682 31.93 22.3182 32.55 22.4182 33.03C22.5182 33.49 22.7182 33.85 23.0182 34.11C23.3382 34.35 23.7782 34.52 24.3382 34.62C24.9182 34.72 25.6882 34.78 26.6482 34.8V36H14.7082V34.8C15.3682 34.78 15.9082 34.72 16.3282 34.62C16.7482 34.52 17.0682 34.35 17.2882 34.11C17.5082 33.87 17.6582 33.53 17.7382 33.09C17.8182 32.65 17.8582 32.08 17.8582 31.38V17.52C17.8582 16.82 17.8182 16.26 17.7382 15.84C17.6782 15.4 17.5482 15.06 17.3482 14.82C17.1482 14.56 16.8582 14.39 16.4782 14.31C16.1182 14.21 15.6382 14.14 15.0382 14.1V12.9H33.3982L33.7582 19.23H32.4982C32.3782 18.37 32.1982 17.65 31.9582 17.07C31.7382 16.47 31.4182 15.99 30.9982 15.63C30.5782 15.25 30.0382 14.98 29.3782 14.82C28.7182 14.66 27.9082 14.58 26.9482 14.58H22.8082C22.4482 14.58 22.2682 14.75 22.2682 15.09V23.76C23.4882 23.76 24.4782 23.71 25.2382 23.61C26.0182 23.51 26.6382 23.32 27.0982 23.04C27.5582 22.74 27.8882 22.34 28.0882 21.84C28.2882 21.34 28.4282 20.68 28.5082 19.86H29.6182V29.25H28.5082C28.3882 28.41 28.2182 27.74 27.9982 27.24C27.7782 26.72 27.4382 26.33 26.9782 26.07C26.5382 25.79 25.9382 25.6 25.1782 25.5C24.4182 25.4 23.4482 25.35 22.2682 25.35V31.17Z" fill="black"/>
</svg>

<svg xmlns="http://www.w3.org/2000/svg" width="48" height="48" fill="none" viewBox="0 0 48 48">
  <rect width="38" height="38" x="5" y="5" fill="#000" opacity=".2" rx="4"/>
  <path fill="#000" d="M22.268 31.17c0 .76.05 1.38.15 1.86.1.46.3.82.6 1.08.32.24.76.41 1.32.51.58.1 1.35.16 2.31.18V36h-11.94v-1.2c.66-.02 1.2-.08 1.62-.18.42-.1.74-.27.96-.51.22-.24.37-.58.45-1.02.08-.44.12-1.01.12-1.71V17.52c0-.7-.04-1.26-.12-1.68-.06-.44-.19-.78-.39-1.02-.2-.26-.49-.43-.87-.51-.36-.1-.84-.17-1.44-.21v-1.2h18.36l.36 6.33h-1.26c-.12-.86-.3-1.58-.54-2.16-.22-.6-.54-1.08-.96-1.44-.42-.38-.96-.65-1.62-.81-.66-.16-1.47-.24-2.43-.24h-4.14c-.36 0-.54.17-.54.51v8.67c1.22 0 2.21-.05 2.97-.15.78-.1 1.4-.29 1.86-.57.46-.3.79-.7.99-1.2.2-.5.34-1.16.42-1.98h1.11v9.39h-1.11c-.12-.84-.29-1.51-.51-2.01-.22-.52-.56-.91-1.02-1.17-.44-.28-1.04-.47-1.8-.57-.76-.1-1.73-.15-2.91-.15v5.82z"/>
</svg>
